16/places/user-bookmarks.svg

<?xml version="1.0" encoding="UTF-8"?>
<svg xmlns="http://www.w3.org/2000/svg" xmlns:xlink="http://www.w3.org/1999/xlink" width="16" height="16" viewBox="0 0 16 16">
<path fill-rule="nonzero" fill="rgb(100%, 80.784315%, 31.764707%)" fill-opacity="1" stroke-width="1" stroke-linecap="butt" stroke-linejoin="miter" stroke="rgb(81.960785%, 62.7451%, 13.725491%)" stroke-opacity="1" stroke-miterlimit="4" d="M 8 0.5 C 7.324219 0.511719 6.839844 0.90625 6.613281 1.5625 L 6.621094 1.53125 L 5.558594 5.203125 L 1.953125 5.203125 C 1.53125 5.214844 1.136719 5.40625 0.863281 5.730469 C 0.582031 6.046875 0.453125 6.46875 0.507812 6.886719 C 0.5625 7.304688 0.796875 7.679688 1.148438 7.914062 L 3.96875 9.917969 L 2.875 13.65625 L 2.871094 13.664062 C 2.703125 14.191406 2.863281 14.765625 3.28125 15.128906 L 3.289062 15.136719 C 3.789062 15.574219 4.519531 15.628906 5.074219 15.265625 L 5.109375 15.246094 L 8 13.214844 L 10.890625 15.246094 L 10.925781 15.265625 C 11.492188 15.628906 12.203125 15.574219 12.710938 15.136719 C 12.710938 15.132812 12.71875 15.132812 12.71875 15.128906 C 13.140625 14.753906 13.296875 14.199219 13.128906 13.664062 L 13.125 13.65625 L 12.03125 9.917969 L 14.851562 7.914062 C 15.597656 7.421875 15.722656 6.386719 15.136719 5.730469 C 14.859375 5.402344 14.453125 5.207031 14.023438 5.203125 L 10.441406 5.203125 L 9.378906 1.53125 L 9.386719 1.5625 C 9.160156 0.90625 8.675781 0.507812 8 0.5 Z M 8 0.5 "/>
</svg>

<svg xmlns="http://www.w3.org/2000/svg" width="16" height="16" version="1.1" id="svg7"><defs id="defs3"><style id="current-color-scheme" type="text/css"/></defs><path d="M8 .5c-.677.01-1.159.405-1.385 1.062l.007-.03-1.062 3.67H1.952a1.472 1.472 0 0 0-1.087.529 1.452 1.452 0 0 0 .284 2.182l2.818 2.005-1.093 3.737-.004.011a1.377 1.377 0 0 0 .41 1.462l.011.008a1.482 1.482 0 0 0 1.785.13l.033-.02L8 13.213l2.891 2.033.033.02c.57.362 1.28.307 1.785-.13.003-.003.008-.005.01-.008.421-.376.578-.927.411-1.462l-.004-.01-1.093-3.738 2.818-2.005c.746-.49.872-1.525.284-2.182a1.472 1.472 0 0 0-1.11-.529H10.44l-1.062-3.67.007.03C9.16.905 8.677.509 8 .5z" id="path5" color="#444" opacity="1" fill="#ffce51" stroke="#d1a023" stroke-width="1" stroke-miterlimit="4" stroke-dasharray="none" stroke-opacity="1" fill-opacity="1"/></svg>
